X:1
T:Le Papillon
T:Calixa Lavallée
T:(The Butterfly)
T:Étude de Concert
T:Copyright 1884 by Arthur P. Schmidt &amp; Co.
T:Copyright 1884 by Arthur P. Schmidt &amp; Co.
T:Copyright 1884 by Arthur P. Schmidt &amp; Co.
T:Copyright 1884 by Arthur P. Schmidt &amp; Co.
T:Copyright 1884 by Arthur P. Schmidt &amp; Co.
T:Copyright 1884 by Arthur P. Schmidt &amp; Co.
T:Copyright 1884 by Arthur P. Schmidt &amp; Co.
Z:Copyright 1884 by Arthur P. Schmidt & Co.
%%score { ( 1 3 ) | ( 2 4 ) }
L:1/8
Q:1/4=92
M:2/4
K:G
V:1 treble nm="Piano" snm="Pno."
V:3 treble 
V:2 bass 
V:4 bass 
V:1
"^À mon ami A. Marmontel"!p!"^Allegretto""_leggiero" (6:4:6(B/^A/B/c/d/c/ (6:4:6B/A/B/c/d/c/ | %1
 (6:4:6B/^A/B/c/d/c/ (6:4:6B/A/B/c/d/c/) | (6:4:6(B/^A/B/c/d/c/ (6:4:6B/A/B/c/d/c/ | %3
 (6:4:6B/^A/B/e/d/c/ (6:4:6B/A/B/g/f/e/) | (6:4:6(B/^A/B/c/d/c/ (6:4:6B/A/B/c/d/c/ | %5
 (6:4:6B/^A/B/e/d/c/ (6:4:6B/A/B/g/f/e/) | (6:4:6(^d/f/a/c'/b/^a/ (6:4:6=a/^g/=g/f/=f/e/ | %7
 (6:4:6^d/f/a/^g/=g/f/ (6:4:6=f/e/^d/=d/^c/=c/) | (6:4:6(B/^A/B/c/d/c/ (6:4:6B/c/B/A/B/A/) | %9
 (6:4:6(G/A/G/F/G/F/ (6:4:6E/F/G/^G/A/^A/) | (6:4:6(B/^A/B/c/d/c/ (6:4:6B/A/B/c/d/c/ | %11
 (6:4:6B/^A/B/e/d/c/ (6:4:6B/A/B/g/f/e/) | (6:4:6(B/^A/B/c/d/c/ (6:4:6B/A/B/c/d/c/ | %13
 (6:4:6B/^A/B/e/d/c/ (6:4:6B/A/B/g/f/e/) | %14
!<(! (6:4:6(d/^d/e/^e/f/=d'/ (6:4:6^a/b/^b/^c'/d'/g'/!<)! | %15
!mp!!>(! (6:4:6f'/g'/e'/^c'/^a/g/ (6:4:6e/^c/^A/G/E/^C/!>)! | %16
!p![I:staff +1] B,/)[I:staff -1] z/ z z2 | z4 | !>![B^db] z!<(! z [^DB-] | B4!<)! |!<(! e4!<)! | %21
!>(! (f2!>)!!mp! B) z |!<(! !>![b^d'd''] z z!>(! (([^dc']!>)! | %23
[eb]))!>(! (([Ba]!>)![Bg]))!>(! (([Gf]!<)!!>)! |!<(![Ge]))!>(! (([^Gd]!>)![Ac])) (([EB]!<)! | %25
!mp! [E^A]))(3g/!<(!f/e/ (3^d/f/b/!<)!!mf! b'/ z/ | %26
!pp!"_cresc." (3(B/F/^D/ (3E/G/c/ (3^c/^G/^E/ (3F/A/d/ | %27
 (3^d/^A/^^F/ (3^G/B/e/ (3=f/c/=A/ (3^A/^c/^f/ | (3g/d/B/ (3^B/^d/^g/ (3a/e/^c/ (3^^c/^e/^a/ | %29
 (3b/f/^d/ (3e/g/c'/ (3^c'/^g/^e/ (3f/a/=d'/ | %30
 (3^d'/^a/^^f/ (3^g/b/e'/ (3=f'/c'/=a/ (3^a/^c'/^f'/ | %31
 (3g'/d'/b/ (3^b/^d'/^g'/ (3a'/e'/^c'/ (3^^c'/^e'/^a'/ | %32
!ff! (3b'/^f'/^d'/ (3e'/g'/c''/ (3b'/f'/d'/ (3e'/g'/c''/ | %33
!8va(! (3b'/^f'/^d'/ (3e'/g'/c''/ (3b'/f'/d'/ (3e'/g'/c''/) | !trill(!Tb'4- |"_dim." !trill)!b'4 | %36
 (6:4:6(b'/^a'/b'/c''/d''/c''/ (6:4:6b'/a'/b'/c''/d''/c''/) | %37
 (6:4:6(b'/^a'/b'/c''/d''/c''/ (6:4:6b'/a'/b'/c''/d''/c''/) | %38
 (6:4:6(b'/c''/b'/_b'/_c''/b'/ (6:4:6a'/_b'/a'/_a'/__b'/a'/) | %39
 (6:4:6(g'/_a'/g'/_g'/__a'/g'/ (6:4:6=f'/g'/f'/=e'/f'/e'/) | %40
 (6:4:6(_e'/_f'/e'/d'/e'/d'/ (6:4:6_d'/__e'/d'/c'/d'/c'/!8va)! | %41
 (6:4:6b/c'/b/_b/_c'/b/ (6:4:6a/_b/a/_a/__b/a/) | (6:4:6(g/_a/g/_g/__a/g/ (6:4:6=f/g/f/=e/f/e/ | %43
 (6:4:6_e/_f/e/d/e/d/ (6:4:6_d/__e/d/c/d/c/) | (6:4:6(B/^A/B/c/d/c/ (6:4:6B/A/B/c/d/c/) | %45
!p! (6:4:6(B/^A/B/c/d/c/ (6:4:6B/A/B/c/d/c/) | (6:4:6(B/^A/!>(!B/c/d/c/ (6:4:6B/A/B/c/d/c/ | %47
 (6:4:6B/^A/B/c/d/c/ (6:4:6B/A/B/c/d/!pp!c/)!>)! | %48
!p!"^elegante" (6:4:6(B/^A/B/c/d/c/ (6:4:6B/A/B/c/d/c/ | (6:4:6B/^A/B/e/d/c/ (6:4:6B/A/B/g/f/e/) | %50
 (6:4:6(B/^A/B/c/d/c/ (6:4:6B/A/B/c/d/c/ | (6:4:6B/^A/B/e/d/c/ (6:4:6B/A/B/g/f/e/) | %52
 (6:4:6(^d/f/a/c'/b/^a/ (6:4:6=a/^g/=g/f/=f/e/ | (6:4:6^d/f/a/^g/=g/f/ (6:4:6=f/e/^d/=d/^c/=c/) | %54
 (6:4:6(B/^A/B/c/d/c/ (6:4:6B/c/B/=A/B/A/ | (6:4:6G/A/G/F/G/F/ (6:4:6E/=G/A/B/c/d/) | %56
 (6:4:6(e/^d/e/=f/g/f/ (6:4:6e/f/e/=d/e/d/ | (6:4:6c/d/c/!>(!B/c/B/!>)!!pp! (6:4:6A/B/A/^G/A/^A/) | %58
 (6:4:6(B/^A/B/c/d/c/ (6:4:6B/c/B/=A/B/A/ | (6:4:6G/A/G/F/G/F/ (6:4:6E/F/E/D/E/D/) | %60
 (3x/ (E/e/) (3x/ (G/g/) (3x/ (E/e/) (3x/ (G/g/) | %61
 (3x/ (E/e/) (3x/ (G/g/) (3x/ (E/e/)"_cresc." (3x/ (G/g/) | %62
 (3x/ (G/g/) (3x/ (^A/^a/) (3x/ (G/g/) (3x/ (A/a/) | %63
 (3x/ (G/g/) (3x/ (^A/^a/) (3x/ (G/g/) (3x/ (A/a/) | %64
 (3x/ (^c/^c'/) (3x/ (e/e'/) (3x/ (g/g'/) (3x/ (^a/^a'/) | %65
!8va(! (3x/ ^c'/^c''/ (3x/ e'/e''/ (3x/ g'/g''/ (3x/ ^a'/^a''/ | %66
!f! (6:4:6x/!>(! (g''/f''/e''/"^con fuoco"b'/g'/ (6:4:6f'/e'/!8va)!b/g/f/e/)!>)! | %67
!p! (6:4:6x/ (g/f/e/B/G/ (6:4:6F/E/[I:staff +1]B,/G,/F,/E,/) | %68
[I:staff -1] (6:4:6z/[I:staff +1] (C,/^C,/D,/^D,/E,/ (6:4:6^E,/F,/^^F,/^G,/A,/^A,/ | %69
!mf! (6:4:6B,/^B,/^C/D/^D/[I:staff -1]E/ (6:4:6^E/F/^^F/^G/A/^A/) | %70
!p! (6:4:6(B/^A/B/c/d/c/ (6:4:6B/A/B/c/d/c/ | (6:4:6B/^A/B/"_dim."c/d/c/ (6:4:6B/A/B/c/d/c/) | %72
 (6:4:6(B/^A/B/^c/^d/c/ (6:4:6B/A/B/c/d/c/ | %73
"_poco rall." (6:4:6B/^A/B/[Q:1/4=84]^c/^d/c/[Q:1/4=77] (6:4:6B/A/B/[Q:1/4=69]c/d/!pp!c/) || %74
[K:E][Q:1/4=92]!p!"^a tempo" (6:4:6(B/^A/B/c/d/c/ (6:4:6B/A/B/c/d/c/ | %75
 (6:4:6B/^A/B/c/d/c/ (6:4:6B/c/d/e/f/g/) | %76
!<(! (6:4:6(!>!b/a/^e/f/g/f/ (6:4:6!>!^b/a/e/f/g/f/)!<)! | %77
!mp!!>(! (6:4:6(!>!c'/a/^e/f/g/f/ (6:4:6!>!=d'/a/f/!>)!!p!!>!^d'/a/f/) | %78
"^animato" (6:4:6(!>!e'/^a/b/c'/d'/c'/ (6:4:6b/a/b/c'/d'/c'/ | %79
 (6:4:6b/^a/b/c'/d'/c'/ (6:4:6b/!8va(!c'/d'/e'/f'/g'/ | %80
!<(! (6:4:6!>!b'/a'/^e'/f'/g'/f'/ (6:4:6!>!^b'/a'/e'/f'/g'/f'/ | %81
 (6:4:6!>!c''/a'/^e'/f'/g'/f'/!<)!!mf! (6:4:6!>!=d''/a'/f'/!>!^d''/a'/f'/ | %82
 (6:4:6!>!e''/b'/^a'/c''/b'/g'/!8va)! (6:4:6e'/b/g/e/f/^^f/) | %83
"^con grazia"!p! (6:4:6(g/^^f/g/a/g/f/ (6:4:6g/a/g/^f/g/f/ | %84
 (6:4:6e/f/e/d/e/d/ (6:4:6c/d/e/f/g/a/) | (6:4:6(b/^a/b/c'/b/a/ (6:4:6b/a/b/=a/b/a/ | %86
 (6:4:6g/a/g/f/g/f/ (6:4:6e/g/a/b/c'/=d'/ | %87
 (6:4:6e'/!<(!^d'/e'/f'/e'/d'/ (6:4:6e'/f'/e'/=d'/!<)!!mp!e'/d'/ | %88
 (6:4:6!>!c'/e'/^a/c'/^^f/a/ (6:4:6!>!e/f/c/e/^A/c/) | %89
!<(! (6:4:6(B/^A/B/c/d/e/ (6:4:6f/g/=a/b/c'/d'/!<)! | %90
!mf! (6:4:6e'/!>(!b/^a/c'/b/g/ (6:4:6e/d/e/^e/f/^^f/) | %91
 (6:4:6(g/!>)!!mp!^^f/g/a/g/^^f/ (6:4:6g/a/g/^f/g/^f/ | (6:4:6e/f/e/d/e/d/ (6:4:6c/d/e/f/g/a/) | %93
 (6:4:6(b/^a/b/c'/b/a/ (6:4:6b/c'/b/=a/b/a/ | (6:4:6g/a/g/f/g/f/ (6:4:6e/g/a/b/c'/=d'/) | %95
 (6:4:6(e'/!<(!^d'/e'/f'/e'/^d'/ (6:4:6e'/f'/e'/!<)!!mf!=d'/e'/d'/ | %96
 (6:4:6c'/e'/^a/c'/^^f/a/ (6:4:6!>!e/f/c/e/^A/c/) | %97
!<(! (14:8:14(B/c/d/e/f/g/a/b/c'/d'/"_20"!8va(!e'/f'/g'/a'/ | %98
(6:4:6b'/c''/d''/e''/f''/g''/!<)!!f! a'')!8va)!.[Adfb] | %99
 .[EGe][I:staff +1](3(E,/!mf!F,/G,/ (6:4:6A,/!<(!B,/C/[I:staff -1]D/E/F/ | %100
 (6:4:6G/A/B/c/!<)!!f!d/e/ f)!>![Adb] | !>![Geg]!mf!(3(E/F/G/!<(! (6:4:6A/B/c/d/!<)!e/f/) | %102
!<(! (6:4:6(g/a/b/c'/d'/e'/!8va(! (6:4:6f'/g'/a'/b'/c''/d''/)!<)! | %103
 (6:4:6(e''/c''/b'/g'/!8va)!!ff!e'/c'/ (6:4:6b/g/e/c/B/G/ | %104
 (6:4:6E/C/[I:staff +1]B,/G,/E,/C,/ (6:4:6B,,/G,,/E,,/C,,/B,,,/G,,,/ | %105
 E,,,)[I:staff -1] x .[DFGd]2 | (!>![EGce][Gg]) (!>![Bdfb][dd']) | %107
!ff! [egbe'] z!ff!!8va(! [e'g'b'e'']!8va)! z |[I:staff +1] .E,2 .E,2 |[Q:1/4=46] !fermata!E,4 |] %110
V:2
 z4 | z4 | E,[B,EG] B,,[B,EG] | E,[B,EG] B,,[B,EG] | E,[B,EG] B,,[B,EG] | E,[B,EG] B,,[B,EG] | %6
 E, !>![A,C^DF]2 [A,CDF] | E, !>![A,C^DF]2 [A,CDF] | ^D,[A,B,G] B,,[A,B,^D] | %9
 E,([A,B,] [G,B,])B,, | E,[B,EG] B,,[B,EG] | E,[B,EG] B,,[B,EG] | E,[B,EG] B,,[B,EG] | %13
 E,[B,EG] B,,[B,EG] | F,[B,DF] F,,[B,DF] | [^A,^CEF] z z2 | %16
 (6:4:6z/ (^A,/B,/C/D/C/ (6:4:6B,/A,/B,/C/D/C/ | (6:4:6B,/^A,/B,/C/D/C/ (6:4:6B,/A,/B,/C/D/C/) | %18
 (6:4:6(B,/^A,/B,/C/D/C/ (6:4:6B,/C/B,/A,/B,/A,/) | %19
 (6:4:6(G,/A,/G,/F,/G,/F,/ (6:4:6E,/F,/E,/D,/E,/D,/) | %20
 (6:4:6(C,/D,/C,/B,,/C,/B,,/ (6:4:6A,,/B,,/A,,/G,,/A,,/G,,/ | %21
 (6:4:6F,,/^A,,/^C,/D,/E,/^A,/ (3B,/F,/^D,/ B,,/) z/ | %22
[I:staff -1] (6:4:6(B/^A/B/c/d/c/ (6:4:6B/c/B/=A/B/A/ | (6:4:6G/A/G/F/G/F/ (6:4:6E/F/E/D/E/D/) | %24
[I:staff +1] (6:4:6(C/D/C/B,/C/B,/ (6:4:6A,/B,/A,/G,/A,/G,/) | %25
!>(! (6:4:6(F,/^A,/^C/[I:staff -1]E/F/^A/ (3B/F/!>)!^D/!p![I:staff +1] B,/) z/ | %26
 (6:4:4x[I:staff -1] ^D/E/[I:staff +1] x (6:4:4x[I:staff -1] ^E/F/[I:staff +1] x | %27
 (6:4:4x[I:staff -1] ^^F/G/[I:staff +1] x (6:4:4x[I:staff -1] =A/^A/[I:staff +1] x | %28
 (6:4:4x[I:staff -1] B/^B/[I:staff +1] x (6:4:4x[I:staff -1] ^c/^^c/[I:staff +1] x | %29
 (6:4:4x[I:staff -1] ^d/e/[I:staff +1] x (6:4:4x[I:staff -1] ^e/f/[I:staff +1] x | %30
 (6:4:4x[I:staff -1] ^^f/^g/[I:staff +1] x (6:4:4x[I:staff -1] =a/^a/[I:staff +1] x | %31
 (6:4:4x[I:staff -1] b/^b/[I:staff +1] x (6:4:4x[I:staff -1] ^c'/^^c'/[I:staff +1] x | %32
 (6:4:4x[I:staff -1] ^d'/e'/[I:staff +1] x (6:4:4x[I:staff -1] d'/e'/[I:staff +1] x | %33
!8va(! (6:4:4x[I:staff -1] ^d'/e'/[I:staff +1] x (6:4:4x[I:staff -1] d'/e'/[I:staff +1] x | %34
 z[I:staff -1] .[e'g'].[^d'f'].[e'g'] | .[^d'f'].[e'g'].[d'f'].[e'g'] | %36
 .[^d'f'].[e'g'].[d'f'].[e'g'] | .[^d'f'].[e'g'].[d'f'].[e'g'] | %38
 .[^d'f'].[=d'=f'].[^c'e'].[=c'_e'] | .[bd'].[_b_d'].[ac'].[^g=b] | %40
 .[=g_b].[^f=a].[=f_a].[=eg]!8va)! | .[^df].[=d=f].[^ce].[=c_e] | .[Bd].[_B_d].[Ac].[^G=B] | %43
 .[=G_B].[^F=A].[=F_A].[=EG] | .[^D^F].[EG].[DF].[EG] | .[^D^F].[EG].[DF].[EG] | %46
 .[DF][I:staff +1] z .[B,D] z | .[F,A,^D] z !arpeggio!.[B,,F,D] z | E,[B,EG] B,,[B,EG] | %49
 E,[B,EG] B,,[B,EG] | E,[B,EG] B,,[B,EG] | E,[B,EG] B,,[B,EG] | E, !>![A,C^DF]2 [A,CDF] | %53
 E, !>![A,C^DF]2 [A,CDF] | ^D,[A,B,G] B,,[A,B,^D] | E,([A,B,] [G,B,]) z | ^G,,[E,B,D] E,,[E,^G,D] | %57
 A,,([D=F] [CE]) z | ^D,[F,A,B,] B,,[F,A,B,] | ([E,G,][F,A,] [G,B,]) z | %60
[I:staff -1] .^C/[I:staff +1] x/[I:staff -1] .E/[I:staff +1] x/[I:staff -1] .C/[I:staff +1] x/[I:staff -1] .E/[I:staff +1] x/ | %61
[I:staff -1] .^C/[I:staff +1] x/[I:staff -1] .E/[I:staff +1] x/[I:staff -1] .C/[I:staff +1] x/[I:staff -1] .E/[I:staff +1] x/ | %62
[I:staff -1] .E/[I:staff +1] x/[I:staff -1] .G/[I:staff +1] x/[I:staff -1] .E/[I:staff +1] x/[I:staff -1] .G/[I:staff +1] x/ | %63
[I:staff -1] .E/[I:staff +1] x/[I:staff -1] .G/[I:staff +1] x/[I:staff -1] .E/[I:staff +1] x/[I:staff -1] .G/[I:staff +1] x/ | %64
[I:staff -1] .^A/[I:staff +1] x/[I:staff -1] .c/[I:staff +1] x/[I:staff -1] .e/[I:staff +1] x/[I:staff -1] .g/[I:staff +1] x/ | %65
!8va(![I:staff -1] .^a/[I:staff +1] x/[I:staff -1] .c'/[I:staff +1] x/[I:staff -1] .e'/[I:staff +1] x/[I:staff -1] .g'/[I:staff +1] x/ | %66
[I:staff -1] .b'/!8va)![I:staff +1] z/ z z2 |[I:staff -1] .B/[I:staff +1] z/ z z2 | %68
 B,,/ z/!<(! z z2!<)! |!>(! z4!>)! | z4 | z4 | [B,,A,^D] z z2 | [B,,,B,,] z z2 || %74
[K:E] .E,.E,,.B,,.E, | B,[I:staff -1]EGE | D[FA] =D[FA] | C[FA]- [=CFA][B,FA] | %78
 .[EG][I:staff +1].E,.B,[I:staff -1].E |[I:staff +1][K:treble] .B.e.g.e | d[fa] =d[fa] | %81
 c[fa]- [fa][fa] | !>![eg] z z2 |[K:bass] ^B,,[F,G,D] G,,[G,^B,F] | C,(([G,DF] [CE])) z | %85
 D,[A,B,F] B,,[B,DA] | E,((([B,DA] [EG]))) z | G,[K:treble][=DEB][K:bass] E,[B,=DG] | %88
 (!>![^A,C=G]E,) (!>![E,=G,C]^A,,) | [G,B,E]B,, [A,B,D]B,, | ([G,B,E]E, E,,) z | %91
 ^B,,[I:staff -1](3(^f/d/c/ ^B)[I:staff +1][G,D] | C,!>(!((([G,DF]!>)! [EG]))) z | %93
 D,[I:staff -1](3(=a/f/e/ d)[I:staff +1][A,B,F] | E,((([B,DA] [EG]))) z | %95
 G,[I:staff -1](3(=d'/b/a/ g)[B,EG] | [^A,E=G][I:staff +1]E, !>![E,=G,C]^A,, | [B,,E,G,B,] z z2 | %98
 z2 [B,,,B,,].[B,,F,D] | .[E,G,B,E](3(E,,/F,,/G,,/ (6:4:6A,,/B,,/C,/D,/E,/F,/ | %100
 (6:4:6G,/A,/B,/C/[I:staff -1]D/E/ F)[I:staff +1]!>![B,,F,D] | %101
 !>![E,B,E](3(E,/F,/G,/ (6:4:6A,/B,/C/D/[I:staff -1]E/F/) | %102
[I:staff +1][K:treble] (6:4:6(G/A/B/c/d/e/ (6:4:6f/g/a/b/c'/d'/) | e' z z2 |[K:bass] x4 | %105
 x z .[G,,D,G,^B,]2 | .[C,E,G,C]2 .[B,,F,A,D]2 | .[E,G,B,E] z[K:treble] .[GBeg] z | %108
[K:bass] .[E,,,E,,]2 .[E,,,E,,]2 | !fermata![E,,,E,,]4 |] %110
V:3
 x4 | x4 | x4 | x4 | x4 | x4 | x4 | x4 | x4 | x4 | x4 | x4 | x4 | x4 | x4 | x4 | x4 | x4 | x4 | %19
 (EAG!mp!F) | (Edc!mf!B) | ([E^A]2 ^D) x | x4 | x4 | x4 | x4 | x4 | x4 | x4 | x4 | x4 | x4 | x4 | %33
!8va(! x4 | x4 | x4 | x4 | x4 | x4 | x4 | x4!8va)! | x4 | x4 | x4 | x4 | x4 | x4 | x4 | x4 | x4 | %50
 x4 | x4 | x4 | x4 | x4 | x4 | x4 | x4 | x4 | x4 | x4 | x4 | x4 | x4 | x4 |!8va(! x4 | %66
 x8/3!8va)! x4/3 | x4 | x4 | x4 | x4 | x4 | x4 | x4 ||[K:E] x4 | x4 | x4 | x4 | x4 | %79
 x7/3!8va(! x5/3 | x4 | x4 | x2!8va)! x2 | x4 | x4 | x4 | x4 | x4 | x4 | x4 | x4 | x4 | x4 | x4 | %94
 x4 | x4 | x4 | x23/8!8va(! x23/20 | x3!8va)! x | x4 | x4 | x4 | x2!8va(! x2 | x4/3!8va)! x8/3 | %104
 x4 | x4 | x4 | x2!8va(! x!8va)! x | x4 | x4 |] %110
V:4
 x4 | x4 | x4 | x4 | x4 | x4 | x4 | x4 | x4 | x4 | x4 | x4 | x4 | x4 | x4 | x4 | x4 | x4 | x4 | %19
 x4 | x4 | x4 | x4 | x4 | x4 | x4 | x4 | x4 | x4 | x4 | x4 | x4 | x4 |!8va(! x4 | x4 | x4 | x4 | %37
 x4 | x4 | x4 | x4!8va)! | x4 | x4 | x4 | x4 | x4 | x4 | x4 | x4 | x4 | x4 | x4 | x4 | x4 | x4 | %55
 x4 | x4 | x4 | x4 | x4 | x4 | x4 | x4 | x4 | x4 |!8va(! x4 | x/!8va)! x7/2 | x4 | x4 | x4 | x4 | %71
 x4 | x4 | x4 ||[K:E] x4 | x4 |[I:staff -1] D2 =D2 | x4 | x4 |[I:staff +1][K:treble] x4 | d2 =d2 | %81
 c2 =cB | x4 |[K:bass] x4 | x4 | x4 | x4 | x[K:treble] x[K:bass] x2 | x4 | x4 | x4 | x4 | x4 | x4 | %94
 x4 | x4 | x4 | x161/40 | x4 | x4 | x4 | x4 |[K:treble] x4 | x4 |[K:bass] x4 | x4 | x4 | %107
 x2[K:treble] x2 |[K:bass] x4 | x4 |] %110

